X: 2
T: Wallop The Potlid
R: jig
M: 6/8
L: 1/8
K: Gmaj
A|BAG AGF|DGG FGA|~B3 cBc|dgg fdc||BAG AGF|DGG FGA|B/c/dB cAF|AGF G2 A||~B3 AGF|DGE FGA|BAB ~c3|dgg fdc||~B3 AGF|DGG FGA|~B3 cAF|AGF G2 A|||BB/B/B cBc|dgg fdc|~B3 cBc|dBG FGA||BAB cA/B/c|dgg fdc|BdB cAF|AGF G2 A||~B3 ~c3|dgg fdc|~B3 cBc|dAG FGA||BAG cBA|dgg fdc|B/c/dB cAF|AGF G2 A||


Tune 1454	Setting 14844

